img/appstore.svg

<svg xmlns="http://www.w3.org/2000/svg" fill="none" viewBox="0 0 161 48"><path fill="#000" d="M154.375 47.5H5.9375C2.6125 47.5 0 44.7688 0 41.5625V5.9375C0 2.6125 2.73125 0 5.9375 0H154.375c3.325 0 5.937 2.73125 5.937 5.9375v35.625c0 3.325-2.612 5.9375-5.937 5.9375Z"/><path fill="#fff" d="M36.5794 24.1069c0-3.325 2.7313-4.8687 2.85-4.9875-1.5437-2.2562-3.9187-2.4937-4.75-2.6125-2.0187-.2375-3.9187 1.1875-4.9875 1.1875-1.0687 0-2.6125-1.1875-4.275-1.1875-2.1375 0-4.1562 1.3063-5.3437 3.2063-2.2563 3.9187-.5938 9.8562 1.6625 13.0625 1.0687 1.5437 2.375 3.325 4.0375 3.325 1.6625-.1188 2.2562-1.0688 4.275-1.0688 2.0187 0 2.4937 1.0688 4.275 1.0688 1.7812 0 2.85-1.5438 3.9187-3.2063 1.3063-1.7812 1.7813-3.5625 1.7813-3.6812 0 .1187-3.4438-1.1875-3.4438-5.1063ZM33.2526 14.4883c.8312-1.0688 1.5437-2.6125 1.3062-4.1563-1.3062 0-2.85.8313-3.8 2.0188-.8312.95-1.5437 2.4937-1.3062 4.0375 1.425 0 2.9687-.8313 3.8-1.9ZM57.3602 32.1836h-5.5813l-1.3062 4.0375h-2.375l5.3437-14.725h2.375l5.3438 14.725h-2.375l-1.425-4.0375Zm-4.9875-1.7813h4.5125l-2.2563-6.5312h-.1187l-2.1375 6.5312ZM72.6797 30.8771c0 3.325-1.7813 5.4625-4.5125 5.4625-1.5438 0-2.7313-.7125-3.325-1.9v5.3438h-2.2563v-14.25h2.1375v1.7812c.5938-1.1875 1.9-1.9 3.4438-1.9 2.6125-.1187 4.5125 2.1375 4.5125 5.4625Zm-2.375 0c0-2.1375-1.0688-3.5625-2.85-3.5625-1.6625 0-2.85 1.425-2.85 3.5625s1.1875 3.5625 2.85 3.5625c1.7812 0 2.85-1.425 2.85-3.5625ZM84.4336 30.8771c0 3.325-1.7813 5.4625-4.5125 5.4625-1.5438 0-2.7313-.7125-3.325-1.9v5.3438h-2.2563v-14.25h2.1375v1.7812c.5938-1.1875 1.9-1.9 3.4438-1.9 2.7312-.1187 4.5125 2.1375 4.5125 5.4625Zm-2.2563 0c0-2.1375-1.0687-3.5625-2.85-3.5625-1.6625 0-2.85 1.425-2.85 3.5625s1.1875 3.5625 2.85 3.5625c1.7813 0 2.85-1.425 2.85-3.5625ZM92.2727 32.0641c.1187 1.425 1.5437 2.375 3.5625 2.375 1.9 0 3.2062-.95 3.2062-2.2563 0-1.1875-.8312-1.7812-2.7312-2.2562l-1.9-.475c-2.7313-.7125-3.9188-1.9-3.9188-3.9188 0-2.4937 2.2563-4.275 5.3438-4.275s5.2248 1.7813 5.3438 4.275h-2.2563c-.1188-1.425-1.3063-2.375-3.0875-2.375-1.7813 0-2.9688.95-2.9688 2.2563 0 1.0687.8313 1.6625 2.7313 2.1375l1.6625.3562c2.9688.7125 4.2748 1.9 4.2748 4.0375 0 2.7313-2.2561 4.5125-5.6998 4.5125-3.325 0-5.4625-1.6625-5.5813-4.3937h2.0188ZM106.048 22.9219v2.4937h2.019v1.7813h-2.019v5.9375c0 .95.357 1.3062 1.307 1.3062h.712v1.7813c-.237.1187-.712.1187-1.187.1187-2.138 0-2.969-.8312-2.969-2.85v-6.175h-1.544v-1.7812h1.544v-2.4938h2.137v-.1187ZM109.371 30.8766c0-3.325 2.019-5.4625 5.106-5.4625 3.088 0 5.107 2.1375 5.107 5.4625 0 3.4437-2.019 5.4625-5.107 5.4625-3.206 0-5.106-2.1375-5.106-5.4625Zm7.956 0c0-2.375-1.068-3.6813-2.85-3.6813-1.781 0-2.85 1.3063-2.85 3.6813s1.069 3.6812 2.85 3.6812c1.782 0 2.85-1.425 2.85-3.6812ZM121.367 25.4141h2.138v1.9c.356-1.1875 1.306-1.9 2.612-1.9.356 0 .594 0 .713.1187v2.0188c-.119-.1188-.594-.1188-.95-.1188-1.425 0-2.257.95-2.257 2.4938v6.4125h-2.256v-10.925ZM137.042 33.0156c-.356 1.9-2.256 3.325-4.631 3.325-3.088 0-5.106-2.1375-5.106-5.4625s1.9-5.5812 4.987-5.5812c2.969 0 4.869 2.0187 4.869 5.3437v.7125h-7.6v.1188c0 1.7812 1.187 3.0875 2.85 3.0875 1.187 0 2.137-.5938 2.494-1.5438h2.137Zm-7.481-3.2062h5.344c0-1.6625-1.069-2.7313-2.613-2.7313s-2.612 1.1875-2.731 2.7313ZM52.0148 10.332c2.1375 0 3.325 1.3063 3.325 3.5625 0 2.2563-1.1875 3.5625-3.325 3.5625h-2.6125v-7.125h2.6125Zm-1.425 6.175h1.3063c1.425 0 2.375-.95 2.375-2.4937 0-1.5438-.8313-2.4938-2.375-2.4938h-1.3063v4.9875ZM56.6445 14.7273c0-1.7812.95-2.7312 2.4938-2.7312 1.5437 0 2.4937 1.0687 2.4937 2.7312 0 1.7813-.95 2.7313-2.4937 2.7313-1.5438.1187-2.4938-.95-2.4938-2.7313Zm3.9188 0c0-1.1875-.475-1.7812-1.425-1.7812-.95 0-1.425.7125-1.425 1.7812 0 1.1875.475 1.9 1.425 1.9.95 0 1.425-.7125 1.425-1.9ZM68.4008 17.457H67.332l-1.0687-3.9187h-.1188l-1.0687 3.9187H64.007l-1.425-5.3437h1.0688l.95 4.0375h.1187l1.0688-4.0375h1.0687l1.0688 4.0375h.1187l.95-4.0375h1.0688l-1.6625 5.3437ZM71.1328 12.1148h1.0688v.8313h.1187c.2375-.5938.8313-.95 1.5438-.95 1.1875 0 1.9.7125 1.9 2.0187v3.4438h-1.0688v-3.2063c0-.8312-.3562-1.3062-1.1875-1.3062-.8312 0-1.3062.475-1.3062 1.3062v3.0875h-1.0688v-5.225ZM77.3086 9.97656h1.0687v7.48124h-1.0687V9.97656ZM79.8008 14.7273c0-1.7812.95-2.7312 2.4937-2.7312 1.5438 0 2.4938 1.0687 2.4938 2.7312 0 1.7813-.95 2.7313-2.4938 2.7313-1.5437.1187-2.4937-.95-2.4937-2.7313Zm4.0375 0c0-1.1875-.475-1.7812-1.425-1.7812-.95 0-1.425.7125-1.425 1.7812 0 1.1875.475 1.9 1.425 1.9.8312 0 1.425-.7125 1.425-1.9ZM85.9766 15.9148c0-.95.7125-1.5437 2.0187-1.5437l1.425-.1188v-.475c0-.5937-.3562-.8312-1.0687-.8312-.5938 0-.95.2375-1.0688.5937h-1.0687c.1187-.95.95-1.5437 2.1375-1.5437 1.3062 0 2.1375.7125 2.1375 1.7812v3.6813h-1.0688v-.7125h-.1187c-.3563.5937-.95.8312-1.6625.8312-.95 0-1.6625-.7125-1.6625-1.6625Zm3.4437-.475v-.475l-1.3062.1188c-.7125 0-1.0688.3562-1.0688.7125 0 .475.475.7125.95.7125.8313.1187 1.425-.3563 1.425-1.0688ZM91.7969 14.7266c0-1.6625.8312-2.7313 2.2562-2.7313.7125 0 1.3063.3563 1.6625.95h.1188V9.97656h1.0687v7.48124h-1.0687v-.8312h-.1188c-.3562.5937-.95.95-1.6625.95-1.3062 0-2.2562-1.0688-2.2562-2.85Zm1.1875 0c0 1.1875.5937 1.7812 1.425 1.7812.8312 0 1.425-.7125 1.425-1.7812 0-1.0688-.5938-1.7813-1.425-1.7813-.95 0-1.425.7125-1.425 1.7813ZM101.176 14.7273c0-1.7812.95-2.7312 2.494-2.7312 1.543 0 2.493 1.0687 2.493 2.7312 0 1.7813-.95 2.7313-2.493 2.7313-1.544.1187-2.494-.95-2.494-2.7313Zm4.037 0c0-1.1875-.475-1.7812-1.425-1.7812-.95 0-1.425.7125-1.425 1.7812 0 1.1875.475 1.9 1.425 1.9.832 0 1.425-.7125 1.425-1.9ZM107.707 12.1148h1.069v.8313h.119c.237-.5938.831-.95 1.543-.95 1.188 0 1.9.7125 1.9 2.0187v3.4438h-1.068v-3.2063c0-.8312-.357-1.3062-1.188-1.3062s-1.306.475-1.306 1.3062v3.0875h-1.069v-5.225ZM118.159 10.8086v1.3062h1.188v.95h-1.188v2.7313c0 .5937.238.8312.713.8312h.356v.8313h-.594c-1.187 0-1.662-.3563-1.662-1.425v-2.9688h-.831v-.8312h.831v-1.425h1.187ZM120.77 9.97656h1.068v2.96874h.119c.238-.5937.831-.95 1.663-.95 1.187 0 1.9.7125 1.9 2.0188v3.4437h-1.069v-3.2062c0-.8313-.356-1.3063-1.188-1.3063-.831 0-1.306.5938-1.306 1.3063v3.0875h-1.069V9.97656h-.118ZM131.576 16.0336c-.238.95-1.069 1.5437-2.375 1.5437-1.544 0-2.494-1.0687-2.494-2.7312 0-1.6625.95-2.85 2.494-2.85 1.544 0 2.375 1.0687 2.375 2.7312v.3563h-3.8c0 .95.594 1.5437 1.425 1.5437.594 0 1.069-.2375 1.306-.5937h1.069Zm-3.8-1.7813h2.731c0-.8312-.594-1.425-1.306-1.425-.831.1188-1.306.5938-1.425 1.425Z"/></svg>

<svg width="161" height="48" viewBox="0 0 161 48" fill="none" xmlns="http://www.w3.org/2000/svg">
<path d="M154.375 47.5H5.9375C2.6125 47.5 0 44.7688 0 41.5625V5.9375C0 2.6125 2.73125 0 5.9375 0H154.375C157.7 0 160.312 2.73125 160.312 5.9375V41.5625C160.312 44.8875 157.7 47.5 154.375 47.5Z" fill="black"/>
<path d="M36.5794 24.1069C36.5794 20.7819 39.3107 19.2382 39.4294 19.1194C37.8857 16.8632 35.5107 16.6257 34.6794 16.5069C32.6607 16.2694 30.7607 17.6944 29.6919 17.6944C28.6232 17.6944 27.0794 16.5069 25.4169 16.5069C23.2794 16.5069 21.2607 17.8132 20.0732 19.7132C17.8169 23.6319 19.4794 29.5694 21.7357 32.7757C22.8044 34.3194 24.1107 36.1007 25.7732 36.1007C27.4357 35.9819 28.0294 35.0319 30.0482 35.0319C32.0669 35.0319 32.5419 36.1007 34.3232 36.1007C36.1044 36.1007 37.1732 34.5569 38.2419 32.8944C39.5482 31.1132 40.0232 29.3319 40.0232 29.2132C40.0232 29.3319 36.5794 28.0257 36.5794 24.1069Z" fill="white"/>
<path d="M33.2526 14.4883C34.0838 13.4195 34.7963 11.8758 34.5588 10.332C33.2526 10.332 31.7088 11.1633 30.7588 12.3508C29.9276 13.3008 29.2151 14.8445 29.4526 16.3883C30.8776 16.3883 32.4213 15.557 33.2526 14.4883Z" fill="white"/>
<path d="M57.3602 32.1836H51.7789L50.4727 36.2211H48.0977L53.4414 21.4961H55.8164L61.1602 36.2211H58.7852L57.3602 32.1836ZM52.3727 30.4023H56.8852L54.6289 23.8711H54.5102L52.3727 30.4023Z" fill="white"/>
<path d="M72.6797 30.8771C72.6797 34.2021 70.8984 36.3396 68.1672 36.3396C66.6234 36.3396 65.4359 35.6271 64.8422 34.4396V39.7834H62.5859V25.5334H64.7234V27.3146C65.3172 26.1271 66.6234 25.4146 68.1672 25.4146C70.7797 25.2959 72.6797 27.5521 72.6797 30.8771ZM70.3047 30.8771C70.3047 28.7396 69.2359 27.3146 67.4547 27.3146C65.7922 27.3146 64.6047 28.7396 64.6047 30.8771C64.6047 33.0146 65.7922 34.4396 67.4547 34.4396C69.2359 34.4396 70.3047 33.0146 70.3047 30.8771Z" fill="white"/>
<path d="M84.4336 30.8771C84.4336 34.2021 82.6523 36.3396 79.9211 36.3396C78.3773 36.3396 77.1898 35.6271 76.5961 34.4396V39.7834H74.3398V25.5334H76.4773V27.3146C77.0711 26.1271 78.3773 25.4146 79.9211 25.4146C82.6523 25.2959 84.4336 27.5521 84.4336 30.8771ZM82.1773 30.8771C82.1773 28.7396 81.1086 27.3146 79.3273 27.3146C77.6648 27.3146 76.4773 28.7396 76.4773 30.8771C76.4773 33.0146 77.6648 34.4396 79.3273 34.4396C81.1086 34.4396 82.1773 33.0146 82.1773 30.8771Z" fill="white"/>
<path d="M92.2727 32.0641C92.3914 33.4891 93.8164 34.4391 95.8352 34.4391C97.7352 34.4391 99.0414 33.4891 99.0414 32.1828C99.0414 30.9953 98.2102 30.4016 96.3102 29.9266L94.4102 29.4516C91.6789 28.7391 90.4914 27.5516 90.4914 25.5328C90.4914 23.0391 92.7477 21.2578 95.8352 21.2578C98.9227 21.2578 101.06 23.0391 101.179 25.5328H98.9227C98.8039 24.1078 97.6164 23.1578 95.8352 23.1578C94.0539 23.1578 92.8664 24.1078 92.8664 25.4141C92.8664 26.4828 93.6977 27.0766 95.5977 27.5516L97.2602 27.9078C100.229 28.6203 101.535 29.8078 101.535 31.9453C101.535 34.6766 99.2789 36.4578 95.8352 36.4578C92.5102 36.4578 90.3727 34.7953 90.2539 32.0641H92.2727V32.0641Z" fill="white"/>
<path d="M106.048 22.9219V25.4156H108.067V27.1969H106.048V33.1344C106.048 34.0844 106.405 34.4406 107.355 34.4406C107.592 34.4406 107.948 34.4406 108.067 34.4406V36.2219C107.83 36.3406 107.355 36.3406 106.88 36.3406C104.742 36.3406 103.911 35.5094 103.911 33.4906V27.3156H102.367V25.5344H103.911V23.0406H106.048V22.9219Z" fill="white"/>
<path d="M109.371 30.8766C109.371 27.5516 111.39 25.4141 114.477 25.4141C117.565 25.4141 119.584 27.5516 119.584 30.8766C119.584 34.3203 117.565 36.3391 114.477 36.3391C111.271 36.3391 109.371 34.2016 109.371 30.8766ZM117.327 30.8766C117.327 28.5016 116.259 27.1953 114.477 27.1953C112.696 27.1953 111.627 28.5016 111.627 30.8766C111.627 33.2516 112.696 34.5578 114.477 34.5578C116.259 34.5578 117.327 33.1328 117.327 30.8766Z" fill="white"/>
<path d="M121.367 25.4141H123.505V27.3141C123.861 26.1266 124.811 25.4141 126.117 25.4141C126.473 25.4141 126.711 25.4141 126.83 25.5328V27.5516C126.711 27.4328 126.236 27.4328 125.88 27.4328C124.455 27.4328 123.623 28.3828 123.623 29.9266V36.3391H121.367V25.4141V25.4141Z" fill="white"/>
<path d="M137.042 33.0156C136.686 34.9156 134.786 36.3406 132.411 36.3406C129.323 36.3406 127.305 34.2031 127.305 30.8781C127.305 27.5531 129.205 25.2969 132.292 25.2969C135.261 25.2969 137.161 27.3156 137.161 30.6406V31.3531H129.561V31.4719C129.561 33.2531 130.748 34.5594 132.411 34.5594C133.598 34.5594 134.548 33.9656 134.905 33.0156H137.042V33.0156ZM129.561 29.8094H134.905C134.905 28.1469 133.836 27.0781 132.292 27.0781C130.748 27.0781 129.68 28.2656 129.561 29.8094Z" fill="white"/>
<path d="M52.0148 10.332C54.1523 10.332 55.3398 11.6383 55.3398 13.8945C55.3398 16.1508 54.1523 17.457 52.0148 17.457H49.4023V10.332H52.0148ZM50.5898 16.507H51.8961C53.3211 16.507 54.2711 15.557 54.2711 14.0133C54.2711 12.4695 53.4398 11.5195 51.8961 11.5195H50.5898V16.507Z" fill="white"/>
<path d="M56.6445 14.7273C56.6445 12.9461 57.5945 11.9961 59.1383 11.9961C60.682 11.9961 61.632 13.0648 61.632 14.7273C61.632 16.5086 60.682 17.4586 59.1383 17.4586C57.5945 17.5773 56.6445 16.5086 56.6445 14.7273ZM60.5633 14.7273C60.5633 13.5398 60.0883 12.9461 59.1383 12.9461C58.1883 12.9461 57.7133 13.6586 57.7133 14.7273C57.7133 15.9148 58.1883 16.6273 59.1383 16.6273C60.0883 16.6273 60.5633 15.9148 60.5633 14.7273Z" fill="white"/>
<path d="M68.4008 17.457H67.332L66.2633 13.5383H66.1445L65.0758 17.457H64.007L62.582 12.1133H63.6508L64.6008 16.1508H64.7195L65.7883 12.1133H66.857L67.9258 16.1508H68.0445L68.9945 12.1133H70.0633L68.4008 17.457Z" fill="white"/>
<path d="M71.1328 12.1148H72.2016V12.9461H72.3203C72.5578 12.3523 73.1516 11.9961 73.8641 11.9961C75.0516 11.9961 75.7641 12.7086 75.7641 14.0148V17.4586H74.6953V14.2523C74.6953 13.4211 74.3391 12.9461 73.5078 12.9461C72.6766 12.9461 72.2016 13.4211 72.2016 14.2523V17.3398H71.1328V12.1148Z" fill="white"/>
<path d="M77.3086 9.97656H78.3773V17.4578H77.3086V9.97656Z" fill="white"/>
<path d="M79.8008 14.7273C79.8008 12.9461 80.7508 11.9961 82.2945 11.9961C83.8383 11.9961 84.7883 13.0648 84.7883 14.7273C84.7883 16.5086 83.8383 17.4586 82.2945 17.4586C80.7508 17.5773 79.8008 16.5086 79.8008 14.7273ZM83.8383 14.7273C83.8383 13.5398 83.3633 12.9461 82.4133 12.9461C81.4633 12.9461 80.9883 13.6586 80.9883 14.7273C80.9883 15.9148 81.4633 16.6273 82.4133 16.6273C83.2445 16.6273 83.8383 15.9148 83.8383 14.7273Z" fill="white"/>
<path d="M85.9766 15.9148C85.9766 14.9648 86.6891 14.3711 87.9953 14.3711L89.4203 14.2523V13.7773C89.4203 13.1836 89.0641 12.9461 88.3516 12.9461C87.7578 12.9461 87.4016 13.1836 87.2828 13.5398H86.2141C86.3328 12.5898 87.1641 11.9961 88.3516 11.9961C89.6578 11.9961 90.4891 12.7086 90.4891 13.7773V17.4586H89.4203V16.7461H89.3016C88.9453 17.3398 88.3516 17.5773 87.6391 17.5773C86.6891 17.5773 85.9766 16.8648 85.9766 15.9148ZM89.4203 15.4398V14.9648L88.1141 15.0836C87.4016 15.0836 87.0453 15.4398 87.0453 15.7961C87.0453 16.2711 87.5203 16.5086 87.9953 16.5086C88.8266 16.6273 89.4203 16.1523 89.4203 15.4398Z" fill="white"/>
<path d="M91.7969 14.7266C91.7969 13.0641 92.6281 11.9953 94.0531 11.9953C94.7656 11.9953 95.3594 12.3516 95.7156 12.9453H95.8344V9.97656H96.9031V17.4578H95.8344V16.6266H95.7156C95.3594 17.2203 94.7656 17.5766 94.0531 17.5766C92.7469 17.5766 91.7969 16.5078 91.7969 14.7266ZM92.9844 14.7266C92.9844 15.9141 93.5781 16.5078 94.4094 16.5078C95.2406 16.5078 95.8344 15.7953 95.8344 14.7266C95.8344 13.6578 95.2406 12.9453 94.4094 12.9453C93.4594 12.9453 92.9844 13.6578 92.9844 14.7266Z" fill="white"/>
<path d="M101.176 14.7273C101.176 12.9461 102.126 11.9961 103.67 11.9961C105.213 11.9961 106.163 13.0648 106.163 14.7273C106.163 16.5086 105.213 17.4586 103.67 17.4586C102.126 17.5773 101.176 16.5086 101.176 14.7273ZM105.213 14.7273C105.213 13.5398 104.738 12.9461 103.788 12.9461C102.838 12.9461 102.363 13.6586 102.363 14.7273C102.363 15.9148 102.838 16.6273 103.788 16.6273C104.62 16.6273 105.213 15.9148 105.213 14.7273Z" fill="white"/>
<path d="M107.707 12.1148H108.776V12.9461H108.895C109.132 12.3523 109.726 11.9961 110.438 11.9961C111.626 11.9961 112.338 12.7086 112.338 14.0148V17.4586H111.27V14.2523C111.27 13.4211 110.913 12.9461 110.082 12.9461C109.251 12.9461 108.776 13.4211 108.776 14.2523V17.3398H107.707V12.1148V12.1148Z" fill="white"/>
<path d="M118.159 10.8086V12.1148H119.347V13.0648H118.159V15.7961C118.159 16.3898 118.397 16.6273 118.872 16.6273C118.991 16.6273 119.109 16.6273 119.228 16.6273V17.4586C119.109 17.4586 118.872 17.4586 118.634 17.4586C117.447 17.4586 116.972 17.1023 116.972 16.0336V13.0648H116.141V12.2336H116.972V10.8086H118.159Z" fill="white"/>
<path d="M120.77 9.97656H121.838V12.9453H121.957C122.195 12.3516 122.788 11.9953 123.62 11.9953C124.807 11.9953 125.52 12.7078 125.52 14.0141V17.4578H124.451V14.2516C124.451 13.4203 124.095 12.9453 123.263 12.9453C122.432 12.9453 121.957 13.5391 121.957 14.2516V17.3391H120.888V9.97656H120.77Z" fill="white"/>
<path d="M131.576 16.0336C131.338 16.9836 130.507 17.5773 129.201 17.5773C127.657 17.5773 126.707 16.5086 126.707 14.8461C126.707 13.1836 127.657 11.9961 129.201 11.9961C130.745 11.9961 131.576 13.0648 131.576 14.7273V15.0836H127.776C127.776 16.0336 128.37 16.6273 129.201 16.6273C129.795 16.6273 130.27 16.3898 130.507 16.0336H131.576ZM127.776 14.2523H130.507C130.507 13.4211 129.913 12.8273 129.201 12.8273C128.37 12.9461 127.895 13.4211 127.776 14.2523Z" fill="white"/>
</svg>
